images/arrow.svg

<svg width="11" height="13" viewBox="0 0 11 13" fill="none" xmlns="http://www.w3.org/2000/svg">
<path d="M6.26136 0.363636V9.70455L9.85227 6.10227L10.7386 6.97727L5.63636 12.0682L0.545455 6.97727L1.40909 6.10227L5.01136 9.70455V0.363636H6.26136Z" fill="#101010"/>
</svg>

<svg xmlns="http://www.w3.org/2000/svg" width="11" height="13" fill="none"><path fill="#101010" d="M6.261.364v9.34l3.591-3.602.887.875-5.103 5.091-5.09-5.09.863-.876 3.602 3.603V.364h1.25Z"/></svg>
